zodiac-pisces.svg

<svg fill="currentColor" viewBox="0 0 24 24"><path d="M20 11h-2c.11-2.81.73-5.58 1.81-8.18L18 2.06A26 26 0 0 0 16 11H8c-.13-3.08-.81-6.1-2-8.94l-1.86.76C5.24 5.41 5.87 8.18 6 11H4v2h2a23.8 23.8 0 0 1-1.81 8.18l1.81.76C7.19 19.1 7.87 16.08 8 13h8c.13 3.08.81 6.1 2 8.94l1.86-.76c-1.1-2.59-1.73-5.36-1.86-8.18h2z"/></svg>

<svg  viewBox="0 0 24 24" fill="currentColor"><path  d="M20,11H18C18.11,8.19 18.73,5.42 19.81,2.82L18,2.06C16.81,4.9 16.13,7.92 16,11H8C7.87,7.92 7.19,4.9 6,2.06L4.14,2.82C5.24,5.41 5.87,8.18 6,11H4V13H6C5.89,15.81 5.27,18.58 4.19,21.18L6,21.94C7.19,19.1 7.87,16.08 8,13H16C16.13,16.08 16.81,19.1 18,21.94L19.86,21.18C18.76,18.59 18.13,15.82 18,13H20V11Z"/></svg>
